icons/core/bookmark.svg

<svg width="32" height="32" viewBox="0 0 32 32" fill="none" xmlns="http://www.w3.org/2000/svg">
<path fill-rule="evenodd" clip-rule="evenodd" d="M6 4C6 2.89543 6.89543 2 8 2L24 2C25.1046 2 26 2.89543 26 4L26 29.1962V30.9282L24.5 30.0622L16 25.1547L7.5 30.0622L6 30.9282L6 29.1961L6 4ZM24 4H8L8 27.4641L15 23.4226C15.6188 23.0654 16.3812 23.0654 17 23.4226L24 27.4641L24 4Z" fill="black"/>
</svg>

<svg viewBox="0 0 32 32" xmlns="http://www.w3.org/2000/svg"><path fill-rule="evenodd" d="M6 4a2 2 0 012-2h16a2 2 0 012 2v26.928l-1.5-.866-8.5-4.907-8.5 4.907-1.5.866V4zm18 0H8v23.464l7-4.041a2 2 0 012 0l7 4.041V4z"/></svg>
